X:1
T:Title
%%score { ( 1 4 ) | ( 2 3 ) }
L:1/8
M:3/4
K:D
V:1 treble nm="Grand Piano"
V:4 treble 
V:2 bass 
V:3 bass 
V:1
 z2 z2[Q:1/4=94] DF | [FA]3 [Fd] [=Fc][FB] | [FA]2 F2 DE | F3 F GF |[M:2/4] [CE]4 |[M:1/4] DF | %6
[M:3/4] [FA]3 [Fd] [=Fc][FB] | [FA]2 F2 DE | F3 F [CF][CE] |[M:2/4] D4 |[M:1/4] AA | %11
[M:3/4] [CA]3 [CA] [DA][EA] | [EA]2 [DA]2 [DB][FB] | B3 d cB |[M:2/4] [CA]4 |[M:1/4] [EA][EA] | %16
[M:3/4] [DA]3 [DA] [FA][FA] | [GB]2 [GB]2 [GB][Ge] | d3 d [Ec][Gc] |[M:2/4] [Fd]4 |] %20
V:2
 z2 z2 [D,F,][D,A,D] | [D,A,]3 [D,A,] [D,^G,][D,G,] | z2 D2 [D,F,][D,G,D] | %3
 [D,A,D]3 [D,A,D] [D,B,D][D,A,D] |[M:2/4] [A,,A,]4 |[M:1/4] [D,F,][D,A,D] | %6
[M:3/4] [D,A,]3 [D,A,] [D,^G,][D,G,] | z2 D2 [F,A,][G,B,D] | [A,D]3 [G,A,D] [A,,A,][A,,G,] | %9
[M:2/4] [D,F,]4 |[M:1/4] [D,F,D][D,F,D] |[M:3/4] [A,,E,]3 [A,,E,] [A,,F,][A,,G,] | %12
 [D,G,]2 [D,F,]2 [D,F,][D,A,] | [E,^G,E]3 [E,G,E] [E,G,E][E,G,D] |[M:2/4] [A,,A,]4 | %15
[M:1/4] [C,G,][C,G,] |[M:3/4] [D,F,]3 [D,F,] [D,A,][D,=C] | [G,B,]2 [G,B,]2 [E,B,][E,B,] | %18
 [A,F]3 [A,F][K:bass] [A,,A,][A,,A,] |[M:2/4] [D,A,]4 |] %20
V:3
 x6 | x6 | [D,A,]4 z2 | x6 |[M:2/4] x4 |[M:1/4] x2 |[M:3/4] x6 | D,4 z2 | x6 |[M:2/4] x4 | %10
[M:1/4] x2 |[M:3/4] x6 | x6 | x6 |[M:2/4] x4 |[M:1/4] x2 |[M:3/4] x6 | x6 | x4[K:bass] x2 | %19
[M:2/4] x4 |] %20
V:4
 x6 | x6 | x6 | x6 |[M:2/4] x4 |[M:1/4] x2 |[M:3/4] x6 | A,4 z2 | x6 |[M:2/4] x4 |[M:1/4] x2 | %11
[M:3/4] x6 | x6 | x6 |[M:2/4] x4 |[M:1/4] x2 |[M:3/4] x6 | x6 | x6 |[M:2/4] x4 |] %20

